svgs/duotone/cart-xmark.svg

<svg xmlns="http://www.w3.org/2000/svg" viewBox="0 0 576 512"><!--! Font Awesome Pro 6.2.0 by @fontawesome - https://fontawesome.com License - https://fontawesome.com/license (Commercial License) Copyright 2022 Fonticons, Inc. --><path d="M459.2 288H170.7L124.5 45.5c-.9-4.8-2.4-9.3-4.4-13.5h411c26.3 0 45.5 25 38.6 50.4l-41 152.3c-8.5 31.4-37 53.3-69.5 53.3zM395.4 128.9c7.8-7.8 7.8-20.5 0-28.3s-20.5-7.8-28.3 0L336 131.7l-31.1-31.1c-7.8-7.8-20.5-7.8-28.3 0s-7.8 20.5 0 28.3L307.7 160l-31.1 31.1c-7.8 7.8-7.8 20.5 0 28.3s20.5 7.8 28.3 0L336 188.3l31.1 31.1c7.8 7.8 20.5 7.8 28.3 0s7.8-20.5 0-28.3L364.3 160l31.1-31.1z" class="fa-secondary"/></svg>

<svg xmlns="http://www.w3.org/2000/svg" viewBox="0 0 576 512"><!--! Font Awesome Pro 6.2.0 by @fontawesome - https://fontawesome.com License - https://fontawesome.com/license (Commercial License) Copyright 2022 Fonticons, Inc. --><defs><style>.fa-secondary{opacity:.4}</style></defs><path class="fa-primary" d="M0 24C0 10.75 10.75 0 24 0H96C107.5 0 117.4 8.19 119.6 19.51L179.9 336H488C501.3 336 512 346.7 512 360C512 373.3 501.3 384 488 384H159.1C148.5 384 138.6 375.8 136.4 364.5L76.14 48H24C10.75 48 0 37.25 0 24V24zM224 464C224 490.5 202.5 512 176 512C149.5 512 128 490.5 128 464C128 437.5 149.5 416 176 416C202.5 416 224 437.5 224 464zM416 464C416 437.5 437.5 416 464 416C490.5 416 512 437.5 512 464C512 490.5 490.5 512 464 512C437.5 512 416 490.5 416 464zM276.6 100.6C284.4 92.79 297.1 92.79 304.9 100.6L336 131.7L367.1 100.6C374.9 92.79 387.6 92.79 395.4 100.6C403.2 108.4 403.2 121.1 395.4 128.9L364.3 159.1L395.4 191.1C403.2 198.9 403.2 211.6 395.4 219.4C387.6 227.2 374.9 227.2 367.1 219.4L336 188.3L304.9 219.4C297.1 227.2 284.4 227.2 276.6 219.4C268.8 211.6 268.8 198.9 276.6 191.1L307.7 159.1L276.6 128.9C268.8 121.1 268.8 108.4 276.6 100.6V100.6z"/><path class="fa-secondary" d="M121.1 32H541.8C562.1 32 578.3 52.25 572.6 72.66L518.6 264.7C514.7 278.5 502.1 288 487.8 288H170.7L121.1 32zM276.6 128.9L307.7 160L276.6 191.1C268.8 198.9 268.8 211.6 276.6 219.4C284.4 227.2 297.1 227.2 304.9 219.4L336 188.3L367.1 219.4C374.9 227.2 387.6 227.2 395.4 219.4C403.2 211.6 403.2 198.9 395.4 191.1L364.3 160L395.4 128.9C403.2 121.1 403.2 108.4 395.4 100.6C387.6 92.79 374.9 92.79 367.1 100.6L336 131.7L304.9 100.6C297.1 92.79 284.4 92.79 276.6 100.6C268.8 108.4 268.8 121.1 276.6 128.9z"/></svg>
